!!!COM: Bach, Johann Sebastian
!!!OTL: Komm, Gott Schoepfer, heiliger Geist
!!!ONM: No. 187
!!!OCL: Erk
!!!YOE: Riemenschneider, Albert
!!!OPR: 371 Harmonized Chorales and 69 Chorale Melodies with Figured Bass
!!!OPT: Bach Chorale Harmonizations
!! NOTE: The actual key is more G Mixolydian.
!!      (There are no sharps and flats in the key signature.)
**kern	**kern	**kern	**kern
! bass	! tenor	! alto	! soprano
*M4/4	*M4/4	*M4/4	*M4/4
*G:	*G:	*G:	*G:
4G	4B	8d	4g
.	.	8e	.
=1	=1	=1	=1
4F	4c	[4f	4a
4C	4c	8f]	4g
.	.	8e	.
4D	4A	8e	4f
.	.	16d	.
.	.	16c	.
4E	8G	8B	4g
.	16c	[8e	.
.	16B	.	.
=2	=2	=2	=2
4AA	8c	8e]	4cc
.	8f	8c	.
4GG	4B	8g	4dd
.	.	8f	.
4C;	4G;	4e;	4cc;
4F	4A	8c	4cc
.	.	8d	.
=3	=3	=3	=3
4E	8B	4e	4g
.	8c	.	.
4D	4d	4f	4b
[4C	4e	4g	4cc
8C]	[4d	4g	4dd
8BB	.	.	.
=4	=4	=4	=4
4C	8d]	[4g	4ee
.	16c	.	.
.	16B	.	.
4CC	8c	8g]	4ee
.	8A	8f#	.
4G;	4B;	4g;	4dd;
4G	4B	4g	4dd
=5	=5	=5	=5
4C	8c	4g	8ee
.	8B	.	8dd
4E	4c	[4g	4cc
4F	4c	8g]	4a
.	.	[8f	.
4c	4c	8f]	4g
.	.	8e	.
=6	=6	=6	=6
8G	4d	4g	4b
8F	.	.	.
4E	4e	4g	4cc#
4D;	4f;	4a;	4dd;
4E	4B	4e	4g
=7	=7	=7	=7
8AA	4A	8e	4cc
8BB	.	8d	.
4C	4A	[4e	4a
4D	8A	8e]	4f
.	8B-	16d	.
.	.	16e	.
4AA	4c	[4f	4a
=8	=8	=8	=8
4BB	[4d	4f]	2g
4C	8d]	4e	.
.	[8c	.	.
4GG;	8c]	4d;	4g;
.	8B;	.	.
==	==	==	==
*-	*-	*-	*-
!!!CDT: 1685/3//-1750/7/28
!!!OCY: Deutschland
!!!AGN: chorale
!!!AST: Baroque
!!!AIN: vox
!!!YOY: 1941
!!!PPP: New York; London
!!!PPR: G. Schirmer
!!!ENC: David Huron
!!!EED: David Huron
!!!YEN: United States of America
!!!YER: 1992
!!!YEC: Copyright 1992 David Huron
!!!YEM: Rights to all derivative electronic formats reserved.
!!!YER: March 20, 1996
!!!AMT: simple quadruple
!!!EEV: 1.1
